svgs/energize.svg

<svg xmlns="http://www.w3.org/2000/svg" viewBox="0 0 192 192"><path fill="none" stroke="#000" stroke-linecap="round" stroke-linejoin="round" stroke-width="12" d="M166.905 16.5H25.095a8.599 8.599 0 0 0-6.078 2.517 8.599 8.599 0 0 0-2.517 6.078v141.81a8.6 8.6 0 0 0 4.297 7.444 8.6 8.6 0 0 0 4.298 1.151h141.81a8.6 8.6 0 0 0 7.444-4.297 8.6 8.6 0 0 0 1.151-4.298V25.095a8.599 8.599 0 0 0-2.517-6.078 8.599 8.599 0 0 0-6.078-2.517Z"/><path fill="none" stroke="#000" stroke-linecap="round" stroke-linejoin="round" stroke-width="8" d="m76.083 61.763 66.138-28.074c5.139 12.107-1.541 23.625-13.784 28.821L62.299 90.583c-5.137-12.102 1.643-23.667 13.784-28.82Zm-20.211 43.823 66.138-28.073c5.14 12.107-1.541 23.624-13.783 28.821l-66.139 28.073c-5.137-12.102 1.642-23.667 13.784-28.821ZM83.76 129.49l66.138-28.073c5.14 12.107-1.541 23.624-13.784 28.82l-66.138 28.074c-5.137-12.102 1.642-23.667 13.784-28.821Z"/></svg>

<svg
    xmlns="http://www.w3.org/2000/svg"
    viewBox="0 0 192 192"
    id="vector">
    <path
        id="path"
        d="M 166.905 16.5 L 25.095 16.5 C 22.816 16.5 20.628 17.406 19.017 19.017 C 17.406 20.628 16.5 22.816 16.5 25.095 L 16.5 166.905 C 16.5 168.414 16.897 169.896 17.651 171.203 C 18.406 172.509 19.491 173.594 20.797 174.349 C 22.104 175.103 23.586 175.5 25.095 175.5 L 166.905 175.5 C 168.414 175.5 169.896 175.103 171.203 174.349 C 172.509 173.594 173.594 172.509 174.349 171.203 C 175.103 169.896 175.5 168.414 175.5 166.905 L 175.5 25.095 C 175.5 22.816 174.594 20.628 172.983 19.017 C 171.372 17.406 169.184 16.5 166.905 16.5 Z"
        fill="none"
        stroke="#000000"
        stroke-width="12"
        stroke-linecap="round"
        stroke-linejoin="round"/>
    <path
        id="path_1"
        d="M 76.083 61.763 L 142.221 33.689 C 147.36 45.796 140.68 57.314 128.437 62.51 L 62.299 90.583 C 57.162 78.481 63.942 66.916 76.083 61.763 Z M 55.872 105.586 L 122.01 77.513 C 127.15 89.62 120.469 101.137 108.227 106.334 L 42.088 134.407 C 36.951 122.305 43.73 110.74 55.872 105.586 Z M 83.76 129.49 L 149.898 101.417 C 155.038 113.524 148.357 125.041 136.114 130.237 L 69.976 158.311 C 64.839 146.209 71.618 134.644 83.76 129.49 Z"
        fill="none"
        stroke="#000000"
        stroke-width="8"
        stroke-linecap="round"
        stroke-linejoin="round"/>
</svg>
